X:1
T:Title
%%score ( 1 2 3 ) ( 4 5 6 )
L:1/8
Q:1/4=95
M:9/8
K:Ab
V:1 treble nm="Grand Piano, Soprano"
V:2 treble 
V:3 treble 
V:4 bass nm="Choir Pad, Night of Nights"
V:5 bass 
V:6 bass 
V:1
 E2 =D F3- F/ z/ EA | d2 c c3 B3 | =E2 F c3- c/ z/ BF | [Ge]2 [Fd] [Ec]6 | E2 =D F3- F/ z/ EA | %5
w: By~Ira~Bishop~Wilson * * * * *|||||
 d2 c c3 B3 | B2 B [=DB]3- [DB]/ z/ [DF][CA] | [B,G]2 [A,F] [G,E]6 |[M:4/4] z2 d6 | z4 c4 | %10
w: |||||
 [Ec]>[Fd] [DB]4- [DB]>[DB] | [Geg]>[Fdf] [Ece]6 | [Ec]>[Ec] [=Ec]2 [EG]>[EG] [Ec]2 | %13
w: |||
 [GB]2 [GB]4 [FA]2 | [FA]>[FA] [Ac]2- [Ac][AB] [Ac]2 | z2 e6 | z2 F4 z2 | z2 c6 | z2 A4 z2 | z8 |] %20
w: |||||||
V:2
 x9 | x9 | x9 | x9 | x9 | x9 | x9 | x9 |[M:4/4] E>E G2 F2 E>[EG] | [EA]>[EB] [Ac]2 G2 F2 | x8 | %11
 x8 | x8 | x8 | x8 | [A=d]2 G2 A2 BE | F>C z2 z2 E2 | E2 [DF]4 z2 | B2 C2 z B [CA]2- | [CA]6 z2 |] %20
V:3
 x9 | x9 | x9 | x9 | x9 | x9 | x9 | x9 |[M:4/4] x8 | x8 | x8 | x8 | x8 | x8 | x8 | x8 | z4 [G,D]4 | %17
 z4 z2 [DG]2- | [DG]2 z2 D2 z2 | x8 |] %20
V:4
 z3 A,,[E,A,C][E,A,C] .[E,A,C]3 | .[F,=A,E]3 B,,[F,B,D][F,B,D] .[F,B,D]3 | %2
 .[F,B,D]3 E,,[E,G,D][E,G,D] .[E,G,D]3 | .[E,G,D]3 A,,[E,A,C][E,A,C] [E,A,C]3 | %4
 z3 A,,[E,A,C][E,A,C] .[E,A,C]3 | .[F,=A,E]3 B,,[G,B,E][G,B,E] .[G,B,E]3 | %6
 .[G,B,E]3 B,,[F,B,][F,B,] .[F,B,]3 | .B,,3 [E,,E,]B,,G,, .E,,3 | %8
[M:4/4] z2 B,,2 [E,G,B,]2 [E,G,B,]>D | C>B, [A,,A,]2 [E,A,C]2 [E,A,C]2 | %10
 [E,A,C]2 E,,2 [E,G,B,]2 [E,G,B,]2 | [E,G,B,]2 A,,2 [E,A,C]2 [E,A,C]2 | %12
 A,>A, [C,G,]2 [C,C]>[C,C] [C,G,]2 | [=E,C]2 [F,C]4 [F,C]2 | %14
 [F,C]>[F,C] [B,,B,]2- [B,,B,][B,,B,] [B,,B,]2 | z2 B,2 z4 | z2 F,4 z2 | z2 E,6- | E,4 z4 | z8 |] %20
V:5
 x9 | x9 | x9 | x9 | x9 | x9 | x9 | x9 |[M:4/4] x8 | x8 | x8 | x8 | x8 | x8 | x8 | %15
 [B,,B,]2 E,2- [E,-C]2 [E,D]E, | F,>C, z2 z2 E,2 | z2 E,,6- | E,,2 z2 =E,2 _E,2- | E,6 z2 |] %20
V:6
 x9 | x9 | x9 | x9 | x9 | x9 | x9 | x9 |[M:4/4] x8 | x8 | x8 | x8 | x8 | x8 | x8 | x8 | z4 B,,4 | %17
 x8 | z2 A,,6 | x8 |] %20

